school/img/icons/tg.svg

<svg width="25" height="25" viewBox="0 0 25 25" fill="none" xmlns="http://www.w3.org/2000/svg">
<path d="M24.9288 2.27592L21.1561 23.4909C20.8715 24.9882 20.1292 25.3608 19.0744 24.6554L13.3262 19.6046L10.5525 22.7855C10.2455 23.1515 9.98882 23.4576 9.39725 23.4576L9.81023 16.4769L20.4641 4.99767C20.9273 4.50522 20.3636 4.23238 19.7442 4.72483L6.57334 14.6136L0.903187 12.4974C-0.330182 12.0383 -0.352505 11.0268 1.15991 10.3214L23.3382 0.133132C24.3651 -0.326037 25.2636 0.405972 24.9288 2.27592Z" fill="white"/>
</svg>

<svg width="25" height="25" fill="none" xmlns="http://www.w3.org/2000/svg"><path d="M24.929 2.276L21.156 23.49c-.284 1.497-1.027 1.87-2.082 1.164l-5.748-5.05-2.774 3.18c-.306.366-.563.673-1.155.673l.413-6.981 10.654-11.48c.463-.492-.1-.765-.72-.272l-13.17 9.889-5.67-2.117c-1.234-.459-1.257-1.47.256-2.176L23.338.133c1.027-.459 1.926.273 1.59 2.143z" fill="#fff"/></svg>
